X:1
T:Lancashire or... JBAT8.067
T:Lancashire or... JBAT8.067
T:Plantation Hornpipes. JBAT8.067 Wonder Hornpipe,aka. JBAT8.067, The
T:Sometimes attributed to James Hill
C:Sometimes attributed to James Hill
L:1/8
Q:1/2=80
M:4/4
K:Bb
V:1 treble 
V:1
 F2 | BfdB AecA | BcdB F2 BA | GBcd edcB | Acf=e gf_ec | BfdB AecA | BcdB F2 BA | Ggfe dcBA | %8
 c2 B2 B2 :: cB | Acf=e fdcB | Acf=e f2 gf | =efga bgf_e | f=efg fgf_e | dedc Bdgf | edcB Acfe | %16
 dbag fedc | B2 d2 B2 :| %18

